Rowaita/16x16/actions/cm_viewhistoryprev.svg

<?xml version="1.0" encoding="UTF-8" standalone="no"?>
<svg
   width="16"
   height="16"
   viewBox="0 0 16 16"
   version="1.1"
   id="svg241"
   sodipodi:docname="cm_viewhistoryprev.svg"
   inkscape:version="1.2.1 (9c6d41e410, 2022-07-14)"
   xmlns:inkscape="http://www.inkscape.org/namespaces/inkscape"
   xmlns:sodipodi="http://sodipodi.sourceforge.net/DTD/sodipodi-0.dtd"
   xmlns="http://www.w3.org/2000/svg"
   xmlns:svg="http://www.w3.org/2000/svg">
  <sodipodi:namedview
     id="namedview243"
     pagecolor="#ffffff"
     bordercolor="#000000"
     borderopacity="0.25"
     inkscape:showpageshadow="2"
     inkscape:pageopacity="0.0"
     inkscape:pagecheckerboard="0"
     inkscape:deskcolor="#d1d1d1"
     showgrid="false"
     inkscape:zoom="16.046875"
     inkscape:cx="-22.371957"
     inkscape:cy="10.999026"
     inkscape:current-layer="svg241" />
  <defs
     id="defs237">
    <style
       id="current-color-scheme"
       type="text/css">
   .ColorScheme-Text { color:#444444; } .ColorScheme-Highlight { color:#4285f4; }
  </style>
  </defs>
  <path
     style="fill:#444444;fill-opacity:1"
     d="M 2,1 C 0.892,1 0,1.892 0,3 v 10 c 0,1.108 0.892,2 2,2 h 10 c 1.108,0 2,-0.892 2,-2 V 9.9941406 L 12,10 v 3 H 2 V 3 h 10 v 3 l 2,-0.00586 V 3 C 14,1.892 13.108,0.99998 12,1 Z"
     id="path239" />
  <path
     d="m 6.8101882,4.5000258 v 0.00455 c -0.3098963,0 -0.60612,0.1230473 -0.82487,0.3372403 L 3.6519851,7.1751493 c -0.4557294,0.4557292 -0.4557294,1.1940099 0,1.649739 l 2.3333331,2.3333337 c 0.21875,0.214188 0.5149737,0.337235 0.82487,0.332678 V 11.5 H 7.9768553 V 9.1666666 h 5.8333327 c 0.642578,0 1.166666,-0.5240885 1.166666,-1.1666664 0,-0.6425779 -0.524088,-1.1666666 -1.166666,-1.1666666 H 7.9768553 V 4.5000002 Z m 0,0"
     id="path2"
     style="fill:#444444;fill-opacity:1;stroke-width:1.16666" />
</svg>

<svg xmlns="http://www.w3.org/2000/svg" width="16" height="16" viewBox="0 0 16 16">
 <defs>
  <style id="current-color-scheme" type="text/css">
   .ColorScheme-Text { color:#444444; } .ColorScheme-Highlight { color:#4285f4; }
  </style>
 </defs>
 <path style="fill:currentColor" class="ColorScheme-Text" d="M 2 1 C 0.892 1 0 1.892 0 3 L 0 13 C 0 14.108 0.892 15 2 15 L 12 15 C 13.108 15 14 14.108 14 13 L 14 9.9941406 L 12 10 L 12 13 L 2 13 L 2 3 L 12 3 L 12 6 L 14 5.9941406 L 14 3 C 14 1.892 13.108 0.99998 12 1 L 2 1 z M 7.7890625 4 L 3.7890625 8 L 7.7890625 12.041016 L 9.1757812 10.654297 L 7.5410156 9.0214844 L 15.001953 9 L 15.001953 7 L 7.5410156 7.0214844 L 9.1757812 5.3867188 L 7.7890625 4 z"/>
</svg>
